X:11242
T:Mother's Reel
R:Reel
M:4/4
L:1/8
K:C
g>f|e2ed cBcA|GAGF EGFE|DGBG dGBG|DGBd gagf|
e2ed cBcA|GAGF EGFE|DGBG dGAB|cedB c2:|
K:G
Bc|d2d^c defg|d2d^c defg|B2Bc BAGA|BcBA B2Bc|
d2d^c defg|d2d^c defg|abag fdef|gagf g2:|
K:C
(3GAB ||c2ec gcea|ggec BcdB|c2ec gcea|ggec BcdB|
c2ec gcea|ggec BcdB|c2ec gcea|ggec BcdB||
